assets/regular/sliders.svg

<svg id="Flat" xmlns="http://www.w3.org/2000/svg" viewBox="0 0 256.00098 256.00098">
  <path d="M136.001,61.17053V39.99988a8,8,0,1,0-16,0V61.17053a27.99534,27.99534,0,0,0,0,53.65869V215.99988a8,8,0,0,0,16,0V114.82922a27.99534,27.99534,0,0,0,0-53.65869Zm-8,38.82935a12,12,0,1,1,12-12A12.01375,12.01375,0,0,1,128.001,99.99988Zm100,68a28.046,28.046,0,0,0-20-26.82935l.001-101.17065a8.00039,8.00039,0,0,0-8-8h0a8.00039,8.00039,0,0,0-8,8l-.001,101.17065a27.99534,27.99534,0,0,0,0,53.65869l.001,21.17115a8,8,0,0,0,16-.001l-.001-21.17017A28.04547,28.04547,0,0,0,228.001,167.99988Zm-28,12a12,12,0,1,1,12-12A12.01375,12.01375,0,0,1,200.001,179.99988Zm-136-70.82935-.00049-69.17065a8,8,0,0,0-16,0l.00049,69.17065a27.99534,27.99534,0,0,0,0,53.65869l-.00049,53.17066a8.00008,8.00008,0,0,0,8,8h0a8.00039,8.00039,0,0,0,8-8l.00049-53.17066a27.99534,27.99534,0,0,0,0-53.65869Zm-8,38.82935a12,12,0,1,1,12-12A12.01375,12.01375,0,0,1,56.001,147.99988Z"/>
</svg>

<svg xmlns="http://www.w3.org/2000/svg" viewBox="0 0 256 256"><path d="M136,61.2V40a8,8,0,0,0-16,0V61.2a28,28,0,0,0,0,53.6V216a8,8,0,0,0,16,0V114.8a28,28,0,0,0,0-53.6ZM128,100a12,12,0,1,1,12-12A12,12,0,0,1,128,100Zm100,68a27.9,27.9,0,0,0-20-26.8V40a8,8,0,0,0-8-8h0a8,8,0,0,0-8,8V141.2a28,28,0,0,0,0,53.6V216a8,8,0,0,0,16,0V194.8A27.9,27.9,0,0,0,228,168Zm-28,12a12,12,0,1,1,12-12A12,12,0,0,1,200,180ZM64,109.2V40a8,8,0,0,0-16,0v69.2a28,28,0,0,0,0,53.6V216a8,8,0,0,0,8,8h0a8,8,0,0,0,8-8V162.8a28,28,0,0,0,0-53.6ZM56,148a12,12,0,1,1,12-12A12,12,0,0,1,56,148Z"/></svg>
